school/img/country/TC.svg

<svg width="13" height="12" viewBox="0 0 13 12" fill="none" xmlns="http://www.w3.org/2000/svg">
<rect width="13" height="12" rx="2" fill="white"/>
<mask id="mask0" mask-type="alpha" maskUnits="userSpaceOnUse" x="0" y="0" width="13" height="12">
<rect width="13" height="12" rx="2" fill="white"/>
</mask>
<g mask="url(#mask0)">
<rect width="13" height="12" fill="#07319C"/>
<path d="M8.38094 6V5.91163V5.86696V5.822V5.77677V5.7313V5.6856V5.63969V5.5936V5.54735V5.50097V5.45446V5.40786V5.36118V5.31446V5.2677V5.24431V5.24139V5.23847V5.23554V5.23262V5.2297V5.22678V5.22385V5.22093V5.21801V5.21508V5.21216V5.20924V5.20632V5.20339V5.20047V5.19755V5.19463V5.1917V5.18878V5.18586V5.18294V5.18002V5.1771V5.17417V5.17125V5.16833V5.16541V5.16249V5.15957V5.15665V5.15373V5.15081V5.14789V5.14497V5.14205V5.13913V5.13621V5.13329V5.13037V5.12745V5.12453V5.12162V5.1187V5.11578V5.11286V5.10995V5.10703V5.10411V5.1012V5.09828V5.09536V5.09245V5.08953V5.08662V5.0837V5.08079V5.07787V5.07496V5.07205V5.06913V5.06622V5.06331V5.06039V5.05748V5.05457V5.05166V5.04875V5.04584V5.04293V5.04002V5.03711V5.0342V5.03129V5.02838V5.02547V5.02257V5.01966V5.01675V5.01385V5.01094V5.00804V5.00513V5.00223V4.99932V4.99642V4.99352V4.99061V4.98771V4.98481V4.98191V4.97901V4.97611V4.97321V4.97031V4.96741V4.96451V4.96161V4.95872V4.95582V4.95292V4.95003V4.94713V4.94424V4.94134V4.93845V4.93556V4.93267V4.92977V4.92688V4.92399V4.9211V4.91821V4.91532V4.91244V4.90955V4.90666V4.90377V4.90089V4.898V4.89512V4.89224V4.88935V4.88647V4.88359V4.88071V4.87783V4.87495V4.87207V4.86919V4.86631V4.86343V4.86056V4.85768V4.85481V4.85193V4.84906V4.84619V4.84331V4.84044V4.83757V4.8347V4.83183V4.82896V4.8261V4.82323V4.82036V4.8175V4.81463V4.81177V4.80891V4.80605V4.80318V4.80032V4.79746V4.7946V4.79175V4.78889V4.78603V4.78318V4.78032V4.77747V4.77462V4.77176V4.76891V4.76606V4.76321V4.76036V4.75752V4.75467V4.75182V4.74898V4.74614V4.74329V4.74045V4.73477V4.71208V4.66689V4.62198V4.57736V4.53306C8.38094 3.98086 8.82857 3.53333 9.38094 3.53333H9.80951C10.3619 3.53333 10.8095 3.98086 10.8095 4.53306V4.53582V4.53858V4.54134V4.5441V4.54687V4.54963V4.5524V4.55517V4.55794V4.56071V4.56348V4.56625V4.56903V4.5718V4.57458V4.57736V4.58014V4.58292V4.5857V4.58849V4.59127V4.59406V4.59684V4.59963V4.60242V4.60521V4.608V4.6108V4.61359V4.61639V4.61918V4.62198V4.62478V4.62758V4.63038V4.63318V4.63598V4.63879V4.64159V4.6444V4.64721V4.65002V4.65283V4.65564V4.65845V4.66126V4.66408V4.66689V4.66971V4.67253V4.67535V4.67816V4.68099V4.68381V4.68663V4.68945V4.69228V4.6951V4.69793V4.70076V4.70359V4.70642V4.70925V4.71208V4.71491V4.71775V4.72058V4.72342V4.72625V4.72909V4.73193V4.73477V4.73761V4.74045V4.74329V4.74614V4.74898V4.75182V4.75467V4.75752V4.76036V4.76321V4.76606V4.76891V4.77176V4.77462V4.77747V4.78032V4.78318V4.78603V4.78889V4.79175V4.7946V4.79746V4.80032V4.80318V4.80605V4.80891V4.81177V4.81463V4.8175V4.82036V4.82323V4.8261V4.82896V4.83183V4.8347V4.83757V4.84044V4.84331V4.84619V4.84906V4.85193V4.85481V4.85768V4.86056V4.86343V4.86631V4.86919V4.87207V4.87495V4.87783V4.88071V4.88359V4.88647V4.88935V4.89224V4.89512V4.898V4.90089V4.90377V4.90666V4.90955V4.91244V4.91532V4.91821V4.9211V4.92399V4.92688V4.92977V4.93267V4.93556V4.93845V4.94134V4.94424V4.94713V4.95003V4.95292V4.95582V4.95872V4.96161V4.96451V4.96741V4.97031V4.97321V4.97611V4.97901V4.98191V4.98481V4.98771V4.99061V4.99352V4.99642V4.99932V5.00223V5.00513V5.00804V5.01094V5.01385V5.01675V5.01966V5.02257V5.02547V5.02838V5.03129V5.0342V5.03711V5.04002V5.04293V5.04584V5.04875V5.05166V5.05457V5.05748V5.06039V5.06331V5.06622V5.06913V5.07205V5.07496V5.07787V5.08079V5.0837V5.08662V5.08953V5.09245V5.09536V5.09828V5.1012V5.10411V5.10703V5.10995V5.11286V5.11578V5.1187V5.12162V5.12453V5.12745V5.13037V5.13329V5.13621V5.13913V5.14205V5.14497V5.14789V5.15081V5.15373V5.15665V5.15957V5.16249V5.16541V5.16833V5.17125V5.17417V5.1771V5.18002V5.18294V5.18586V5.18878V5.1917V5.19463V5.19755V5.20047V5.20339V5.20632V5.20924V5.21216V5.21508V5.21801V5.22093V5.22385V5.22678V5.2297V5.23262V5.23554V5.23847V5.24139V5.24431V5.24724V5.25016V5.25308V5.25601V5.25893V5.26185V5.26477V5.2677V5.27062V5.27354V5.27647V5.27939V5.28231V5.28523V5.28816V5.29108V5.294V5.29692V5.29985V5.30277V5.30569V5.30861V5.31153V5.31446V5.31738V5.3203V5.32322V5.32614V5.32906V5.33198V5.3349V5.33783V5.34075V5.34367V5.34659V5.34951V5.35243V5.35535V5.35827V5.36118V5.3641V5.36702V5.36994V5.37286V5.37578V5.3787V5.38161V5.38453V5.38745V5.39036V5.39328V5.3962V5.39911V5.40203V5.40494V5.40786V5.41077V5.41369V5.4166V5.41952V5.42243V5.42535V5.42826V5.43117V5.43408V5.437V5.43991V5.44282V5.44573V5.44864V5.45155V5.45446V5.45737V5.46028V5.46319V5.4661V5.46901V5.47191V5.47482V5.47773V5.48063V5.48354V5.48645V5.48935V5.49226V5.49516V5.49806V5.50097V5.50387V5.50677V5.50967V5.51258V5.51548V5.51838V5.52128V5.52418V5.52708V5.52997V5.53287V5.53577V5.53867V5.54156V5.54446V5.54735V5.55025V5.55314V5.55604V5.55893V5.56182V5.56472V5.56761V5.5705V5.57339V5.57628V5.57917V5.58206V5.58494V5.58783V5.59072V5.5936V5.59649V5.59937V5.60226V5.60514V5.60802V5.61091V5.61379V5.61667V5.61955V5.62243V5.62531V5.62819V5.63106V5.63394V5.63682V5.63969V5.64257V5.64544V5.64831V5.65119V5.65406V5.65693V5.6598V5.66267V5.66554V5.66841V5.67127V5.67414V5.677V5.67987V5.68273V5.6856V5.68846V5.69132V5.69418V5.69704V5.6999V5.70276V5.70562V5.70847V5.71133V5.71419V5.71704V5.71989V5.72275V5.7256V5.72845V5.7313V5.73415V5.737V5.73984V5.74269V5.74553V5.74838V5.75122V5.75407V5.75691V5.75975V5.76259V5.76543V5.76826V5.7711V5.77394V5.77677V5.77961V5.78244V5.78527V5.7881V5.79093V5.79376V5.79659V5.79942V5.80225V5.80507V5.80789V5.81072V5.81354V5.81636V5.81918V5.822V5.82482V5.82764V5.83045V5.83327V5.83608V5.83889V5.8417V5.84451V5.84732V5.85013V5.85294V5.85575V5.85855V5.86135V5.86416V5.86696V5.86976V5.87256V5.87536V5.87815V5.88095V5.88374V5.88654V5.88933V5.89212V5.89491V5.8977V5.90049V5.90327V5.90606V5.90884V5.91163V5.91441V5.91719V5.91997V5.92274V5.92552V5.9283V5.93107V5.93384V5.93662V5.93939V5.94215V5.94492V5.94769V5.95045V5.95322V5.95598V5.95874V5.9615V5.96426V5.96702V5.96977V5.97253V5.97528V5.97803V5.98078V5.98353V5.98628V5.98903V5.99177V5.99452V5.99726V6C10.8095 6.90588 10.4614 7.53128 10.1163 7.93269C9.94246 8.13485 9.76884 8.28054 9.6401 8.37482C9.62442 8.3863 9.60943 8.397 9.59523 8.40692C9.58102 8.397 9.56604 8.3863 9.55035 8.37482C9.42161 8.28054 9.24799 8.13485 9.07417 7.93269C8.72905 7.53128 8.38094 6.90588 8.38094 6ZM9.4409 8.50455L9.44092 8.50453L9.4409 8.50455Z" fill="#FFD033" stroke="white" stroke-width="0.666667"/>
<mask id="mask1" mask-type="alpha" maskUnits="userSpaceOnUse" x="8" y="3" width="4" height="6">
<path d="M8.38094 6V5.91163V5.86696V5.822V5.77677V5.7313V5.6856V5.63969V5.5936V5.54735V5.50097V5.45446V5.40786V5.36118V5.31446V5.2677V5.24431V5.24139V5.23847V5.23554V5.23262V5.2297V5.22678V5.22385V5.22093V5.21801V5.21508V5.21216V5.20924V5.20632V5.20339V5.20047V5.19755V5.19463V5.1917V5.18878V5.18586V5.18294V5.18002V5.1771V5.17417V5.17125V5.16833V5.16541V5.16249V5.15957V5.15665V5.15373V5.15081V5.14789V5.14497V5.14205V5.13913V5.13621V5.13329V5.13037V5.12745V5.12453V5.12162V5.1187V5.11578V5.11286V5.10995V5.10703V5.10411V5.1012V5.09828V5.09536V5.09245V5.08953V5.08662V5.0837V5.08079V5.07787V5.07496V5.07205V5.06913V5.06622V5.06331V5.06039V5.05748V5.05457V5.05166V5.04875V5.04584V5.04293V5.04002V5.03711V5.0342V5.03129V5.02838V5.02547V5.02257V5.01966V5.01675V5.01385V5.01094V5.00804V5.00513V5.00223V4.99932V4.99642V4.99352V4.99061V4.98771V4.98481V4.98191V4.97901V4.97611V4.97321V4.97031V4.96741V4.96451V4.96161V4.95872V4.95582V4.95292V4.95003V4.94713V4.94424V4.94134V4.93845V4.93556V4.93267V4.92977V4.92688V4.92399V4.9211V4.91821V4.91532V4.91244V4.90955V4.90666V4.90377V4.90089V4.898V4.89512V4.89224V4.88935V4.88647V4.88359V4.88071V4.87783V4.87495V4.87207V4.86919V4.86631V4.86343V4.86056V4.85768V4.85481V4.85193V4.84906V4.84619V4.84331V4.84044V4.83757V4.8347V4.83183V4.82896V4.8261V4.82323V4.82036V4.8175V4.81463V4.81177V4.80891V4.80605V4.80318V4.80032V4.79746V4.7946V4.79175V4.78889V4.78603V4.78318V4.78032V4.77747V4.77462V4.77176V4.76891V4.76606V4.76321V4.76036V4.75752V4.75467V4.75182V4.74898V4.74614V4.74329V4.74045V4.73477V4.71208V4.66689V4.62198V4.57736V4.53306C8.38094 3.98086 8.82857 3.53333 9.38094 3.53333H9.80951C10.3619 3.53333 10.8095 3.98086 10.8095 4.53306V4.53582V4.53858V4.54134V4.5441V4.54687V4.54963V4.5524V4.55517V4.55794V4.56071V4.56348V4.56625V4.56903V4.5718V4.57458V4.57736V4.58014V4.58292V4.5857V4.58849V4.59127V4.59406V4.59684V4.59963V4.60242V4.60521V4.608V4.6108V4.61359V4.61639V4.61918V4.62198V4.62478V4.62758V4.63038V4.63318V4.63598V4.63879V4.64159V4.6444V4.64721V4.65002V4.65283V4.65564V4.65845V4.66126V4.66408V4.66689V4.66971V4.67253V4.67535V4.67816V4.68099V4.68381V4.68663V4.68945V4.69228V4.6951V4.69793V4.70076V4.70359V4.70642V4.70925V4.71208V4.71491V4.71775V4.72058V4.72342V4.72625V4.72909V4.73193V4.73477V4.73761V4.74045V4.74329V4.74614V4.74898V4.75182V4.75467V4.75752V4.76036V4.76321V4.76606V4.76891V4.77176V4.77462V4.77747V4.78032V4.78318V4.78603V4.78889V4.79175V4.7946V4.79746V4.80032V4.80318V4.80605V4.80891V4.81177V4.81463V4.8175V4.82036V4.82323V4.8261V4.82896V4.83183V4.8347V4.83757V4.84044V4.84331V4.84619V4.84906V4.85193V4.85481V4.85768V4.86056V4.86343V4.86631V4.86919V4.87207V4.87495V4.87783V4.88071V4.88359V4.88647V4.88935V4.89224V4.89512V4.898V4.90089V4.90377V4.90666V4.90955V4.91244V4.91532V4.91821V4.9211V4.92399V4.92688V4.92977V4.93267V4.93556V4.93845V4.94134V4.94424V4.94713V4.95003V4.95292V4.95582V4.95872V4.96161V4.96451V4.96741V4.97031V4.97321V4.97611V4.97901V4.98191V4.98481V4.98771V4.99061V4.99352V4.99642V4.99932V5.00223V5.00513V5.00804V5.01094V5.01385V5.01675V5.01966V5.02257V5.02547V5.02838V5.03129V5.0342V5.03711V5.04002V5.04293V5.04584V5.04875V5.05166V5.05457V5.05748V5.06039V5.06331V5.06622V5.06913V5.07205V5.07496V5.07787V5.08079V5.0837V5.08662V5.08953V5.09245V5.09536V5.09828V5.1012V5.10411V5.10703V5.10995V5.11286V5.11578V5.1187V5.12162V5.12453V5.12745V5.13037V5.13329V5.13621V5.13913V5.14205V5.14497V5.14789V5.15081V5.15373V5.15665V5.15957V5.16249V5.16541V5.16833V5.17125V5.17417V5.1771V5.18002V5.18294V5.18586V5.18878V5.1917V5.19463V5.19755V5.20047V5.20339V5.20632V5.20924V5.21216V5.21508V5.21801V5.22093V5.22385V5.22678V5.2297V5.23262V5.23554V5.23847V5.24139V5.24431V5.24724V5.25016V5.25308V5.25601V5.25893V5.26185V5.26477V5.2677V5.27062V5.27354V5.27647V5.27939V5.28231V5.28523V5.28816V5.29108V5.294V5.29692V5.29985V5.30277V5.30569V5.30861V5.31153V5.31446V5.31738V5.3203V5.32322V5.32614V5.32906V5.33198V5.3349V5.33783V5.34075V5.34367V5.34659V5.34951V5.35243V5.35535V5.35827V5.36118V5.3641V5.36702V5.36994V5.37286V5.37578V5.3787V5.38161V5.38453V5.38745V5.39036V5.39328V5.3962V5.39911V5.40203V5.40494V5.40786V5.41077V5.41369V5.4166V5.41952V5.42243V5.42535V5.42826V5.43117V5.43408V5.437V5.43991V5.44282V5.44573V5.44864V5.45155V5.45446V5.45737V5.46028V5.46319V5.4661V5.46901V5.47191V5.47482V5.47773V5.48063V5.48354V5.48645V5.48935V5.49226V5.49516V5.49806V5.50097V5.50387V5.50677V5.50967V5.51258V5.51548V5.51838V5.52128V5.52418V5.52708V5.52997V5.53287V5.53577V5.53867V5.54156V5.54446V5.54735V5.55025V5.55314V5.55604V5.55893V5.56182V5.56472V5.56761V5.5705V5.57339V5.57628V5.57917V5.58206V5.58494V5.58783V5.59072V5.5936V5.59649V5.59937V5.60226V5.60514V5.60802V5.61091V5.61379V5.61667V5.61955V5.62243V5.62531V5.62819V5.63106V5.63394V5.63682V5.63969V5.64257V5.64544V5.64831V5.65119V5.65406V5.65693V5.6598V5.66267V5.66554V5.66841V5.67127V5.67414V5.677V5.67987V5.68273V5.6856V5.68846V5.69132V5.69418V5.69704V5.6999V5.70276V5.70562V5.70847V5.71133V5.71419V5.71704V5.71989V5.72275V5.7256V5.72845V5.7313V5.73415V5.737V5.73984V5.74269V5.74553V5.74838V5.75122V5.75407V5.75691V5.75975V5.76259V5.76543V5.76826V5.7711V5.77394V5.77677V5.77961V5.78244V5.78527V5.7881V5.79093V5.79376V5.79659V5.79942V5.80225V5.80507V5.80789V5.81072V5.81354V5.81636V5.81918V5.822V5.82482V5.82764V5.83045V5.83327V5.83608V5.83889V5.8417V5.84451V5.84732V5.85013V5.85294V5.85575V5.85855V5.86135V5.86416V5.86696V5.86976V5.87256V5.87536V5.87815V5.88095V5.88374V5.88654V5.88933V5.89212V5.89491V5.8977V5.90049V5.90327V5.90606V5.90884V5.91163V5.91441V5.91719V5.91997V5.92274V5.92552V5.9283V5.93107V5.93384V5.93662V5.93939V5.94215V5.94492V5.94769V5.95045V5.95322V5.95598V5.95874V5.9615V5.96426V5.96702V5.96977V5.97253V5.97528V5.97803V5.98078V5.98353V5.98628V5.98903V5.99177V5.99452V5.99726V6C10.8095 6.90588 10.4614 7.53128 10.1163 7.93269C9.94246 8.13485 9.76884 8.28054 9.6401 8.37482C9.62442 8.3863 9.60943 8.397 9.59523 8.40692C9.58102 8.397 9.56604 8.3863 9.55035 8.37482C9.42161 8.28054 9.24799 8.13485 9.07417 7.93269C8.72905 7.53128 8.38094 6.90588 8.38094 6ZM9.4409 8.50455L9.44092 8.50453L9.4409 8.50455Z" fill="white" stroke="white" stroke-width="0.666667"/>
</mask>
<g mask="url(#mask1)">
<path fill-rule="evenodd" clip-rule="evenodd" d="M10.2142 5.6C10.3852 5.6 10.5238 5.24183 10.5238 4.8C10.5238 4.35817 10.3852 4 10.2142 4C10.0433 4 9.90472 4.35817 9.90472 4.8C9.90472 5.24183 10.0433 5.6 10.2142 5.6Z" fill="#BA5B1F"/>
<path fill-rule="evenodd" clip-rule="evenodd" d="M9.07143 5.57588C9.23206 5.50032 9.26749 5.1025 9.15056 4.68732C9.03362 4.27213 8.80861 3.99681 8.64797 4.07237C8.48734 4.14793 8.45191 4.54575 8.56884 4.96093C8.68578 5.37612 8.91079 5.65144 9.07143 5.57588Z" fill="#FF9F3E"/>
<path fill-rule="evenodd" clip-rule="evenodd" d="M8.84536 5.56253C9.00029 5.65589 9.24301 5.40696 9.3875 5.00653C9.53199 4.60609 9.52353 4.2058 9.3686 4.11243C9.21367 4.01907 8.97094 4.268 8.82645 4.66843C8.68196 5.06886 8.69043 5.46916 8.84536 5.56253Z" fill="#FF937F"/>
<path fill-rule="evenodd" clip-rule="evenodd" d="M9.28571 6.4L9.59523 5.6L9.90475 6.4V7.2H9.28571V6.4Z" fill="#01A827"/>
</g>
<path d="M0 -0.333333H-0.75L-0.247423 0.223368L1.83333 2.5282V3.05406L-0.226093 4.95507L-0.333333 5.05406V5.2V5.6V6.29771L0.209446 5.85931L2.59399 3.93333H2.96491L5.00214 5.81385C5.08536 5.89067 5.19447 5.93333 5.30773 5.93333C5.69811 5.93333 5.90374 5.47067 5.64214 5.1809L3.7381 3.07179V2.54594L5.69028 0.743925C5.827 0.617721 5.90476 0.440121 5.90476 0.254056V0V-0.697712L5.36198 -0.259314L2.97744 1.66667H2.60652L0.535617 -0.244934L0.439852 -0.333333H0.309524H0Z" fill="#DB1E36" stroke="white" stroke-width="0.666667"/>
<path fill-rule="evenodd" clip-rule="evenodd" d="M0 2V3.6H2.16667V5.38095C2.16667 5.72284 2.44382 6 2.78571 6V6C3.1276 6 3.40476 5.72284 3.40476 5.38095V3.6H5.21429C5.58247 3.6 5.88095 3.30152 5.88095 2.93333V2.66667C5.88095 2.29848 5.58248 2 5.21429 2H3.40476V0H2.16667V2H0Z" fill="white"/>
<path fill-rule="evenodd" clip-rule="evenodd" d="M0 2.4H2.47619V2V0H3.09524V2V2.4H5.57143V3.2H3.09524V3.6V5.6H2.47619V3.6V3.2H0V2.4Z" fill="#DB1E36"/>
</g>
</svg>

<svg width="13" height="12" fill="none" xmlns="http://www.w3.org/2000/svg"><rect width="13" height="12" rx="2" fill="#fff"/><mask id="a" maskUnits="userSpaceOnUse" x="0" y="0" width="13" height="12"><rect width="13" height="12" rx="2" fill="#fff"/></mask><g mask="url(#a)"><path fill="#07319C" d="M0 0h13v12H0z"/><path d="M8.38 6V4.533a1 1 0 011-1h.43a1 1 0 011 1V6c0 .906-.349 1.531-.694 1.933a2.875 2.875 0 01-.52.474l-.046-.032a2.874 2.874 0 01-.476-.442C8.73 7.53 8.381 6.906 8.381 6zm1.06 2.505h0z" fill="#FFD033" stroke="#fff" stroke-width=".667"/><mask id="b" maskUnits="userSpaceOnUse" x="8" y="3" width="4" height="6"><path d="M8.38 6V4.533a1 1 0 011-1h.43a1 1 0 011 1V6c0 .906-.349 1.531-.694 1.933a2.875 2.875 0 01-.52.474l-.046-.032a2.874 2.874 0 01-.476-.442C8.73 7.53 8.381 6.906 8.381 6zm1.06 2.505h0z" fill="#fff" stroke="#fff" stroke-width=".667"/></mask><g mask="url(#b)" fill-rule="evenodd" clip-rule="evenodd"><path d="M10.214 5.6c.171 0 .31-.358.31-.8 0-.442-.139-.8-.31-.8-.17 0-.31.358-.31.8 0 .442.14.8.31.8z" fill="#BA5B1F"/><path d="M9.071 5.576c.161-.076.196-.473.08-.889-.117-.415-.342-.69-.503-.615-.16.076-.196.474-.08.889.118.415.343.69.503.615z" fill="#FF9F3E"/><path d="M8.845 5.563c.155.093.398-.156.542-.556.145-.4.137-.801-.018-.895-.155-.093-.398.156-.543.556-.144.4-.136.801.02.895z" fill="#FF937F"/><path d="M9.286 6.4l.31-.8.309.8v.8h-.62v-.8z" fill="#01A827"/></g><path d="M0-.333h-.75l.503.556 2.08 2.305v.526l-2.06 1.901-.106.1v1.242l.542-.439 2.385-1.926h.37l2.038 1.88a.45.45 0 00.64-.632L3.738 3.07v-.525L5.69.744a.667.667 0 00.215-.49v-.952l-.543.439-2.385 1.926h-.37L.536-.245.44-.333H0z" fill="#DB1E36" stroke="#fff" stroke-width=".667"/><path fill-rule="evenodd" clip-rule="evenodd" d="M0 2v1.6h2.167v1.781a.62.62 0 001.238 0V3.6h1.81a.667.667 0 00.666-.667v-.266A.667.667 0 005.214 2h-1.81V0H2.168v2H0z" fill="#fff"/><path fill-rule="evenodd" clip-rule="evenodd" d="M0 2.4h2.476V0h.62v2.4H5.57v.8H3.095v2.4h-.619V3.2H0v-.8z" fill="#DB1E36"/></g></svg>
